X:341
T:The Bonnie Banks of Loch Lomond
M:4/4
L:1/8
K:G major
D2 | "G"G2 GA B2 AG | "D"A2 AG "C"E2 D2 | "G"G2 G2 G2 Bd | "C"e4 "D"d2 d2 |
"C"e2 ed "G"B2 Bd | "C"cBAG "D"E2 DE | "G"G2 Bd "C"e2 dB | "D"A4 "G"[g2G2] D2 |
"G"G2 GA B2 AG | "D"ABAG "C"E2 DE | "G"G2 G2 G2 Bd | "C"e4 "D"d2 d2 |
"C"e2 ge "G"d2 Bd | "C"cBAG "D"E2 DE | "G"GGBd "C"e2 dB | "D"A4 "G"G2 |]

